X: 2161
T: The AULD TOUN O' AYR
Q: "Strathspey."
R: Strathspey.
%R: strathspey
B: James Kerr "Merry Melodies" v.2 p.19 #161
Z: 2016 John Chambers <jc:trillian.mit.edu>
M: C
L: 1/16
K: D
F2 |\
DD3FA3 d6uc2 | BABc d2B2 AF3F3d |\
[1 DD3FA3 d6uf2 | (3e2f2g2 (3g2f2e2 | d2B3B :|\
[2 BABc d3B AF3F3d | AF3F3D E6 ||\
uF2 |\
vD3vduF3ud vAF3F3uA |
BABc d3uB vAF3F3ud |\
D3dF3d AF3F3A | d3B AF3 E6 F2 |\
D3dF3d AF3F3A | B3AB3c d6uf2 |\
(3e2f2g2 (3g2f2e2 dB3B3d | AF3F3D E6 |]

%%sep 1 1 500
%%sep 1 1 500

